X:273
T:Hornpipe
O:No 273 Page 106 William Clarke of Feltwell.
T:Compare with Balls Hornpipe, George Spencer, Leeds. (v.m.p. GS.035)
M:4/4
L:1/8
K:G
D2|G2BGA2cA|B2dBG3B|c2ecB2dB|A2BG GFED|/
G2BGA2cA|B2dBc2ed|cBAGD2ga|g2dBG2:||
:z2|gfge edcB|efge edcB|c2acB2gB|A2BG GFED|/
G2BGA2cA|B2dBc2ed|cBAGD2fa|g2dBG2:|

